!!!COA:	Josquin des Prez
!!!CDT:	~1450-1521/08/27
!!!OPR:	Missa Mon seul plaisir
!!!ONM:	1
!!!OTL:	Kyrie
!!!AGN:	Mass; Kyrie
!!!SCT:	NJE 9.2
!!!SCA:	New Josquin Edition 9.2
!!!voices:	4
!!!voices-OPR:	4
**kern	**kern
*staff2	*staff1
*Ivox	*Ivox
*I"Bassus	*I"Tenor
*I'B	*I'T
*>[A,B,C]	*>[A,B,C]
*>A	*>A
*clefF4	*clefGv2
*k[]	*k[]
*M2/1	*M2/1
*met(C|)	*met(C|)
=1-	=1-
!!LO:TX:Z=12:t=[Only T and B are extant]
0G	0G
=2	=2
0D	1F
.	1F
=3	=3
1E	1G
1C	[1c
=4	=4
0G	2c\]
.	4B\
.	4A/
.	2B\
.	4A/
.	4B\
=5	=5
2C/	2c\
2.G\	2B\
.	4G/
4F\	4A/
2E\	4B\
.	4c\
=6	=6
1D	[0d
2GG/	.
[2D\	.
=7	=7
4D\]	1d]
4C/	.
2BB/	.
1AA	1c
=8	=8
1GG	1B
2G\	2G/
[2F\	[2c\
=9	=9
2F\]	2c\]
2G\	2B\
1D	1A
=10	=10
0E	0G
=11	=11
2.C/	0r
4D\	.
2E\	.
[2F\	.
=12	=12
4F\]	0r
4E\	.
4D\	.
4C/	.
1D	.
=13	=13
1.C	[0G
4BB/	.
4AA/	.
=14	=14
1GG	1G]
1AA	1E
=15	=15
1D	1F
1GG	1G
=16	=16
0AA	2E/
.	1A
.	2c\
=17	=17
1E	1B
1F	1A
=18	=18
0E	2c\
.	2.e\
.	4d\
.	2e\
=19	=19
1D	2A/
.	1d
1G	.
.	2B\
=20	=20
2E\	1c
2F\	.
2D\	2B\
2G\	2e\
=21	=21
2A\	2c\
2D\	2f\
1E	2.e\
.	4d\
=22	=22
1F	2c\
.	2d\
2D\	1B
2E\	.
=23	=23
2C/	1A
1D	.
.	1r
4C/	.
4BB/	.
=24	=24
2AA/	0r
2GG/	.
1AA	.
=25	=25
1GG	1r
1G	1G
=26	=26
1F	0c
1A	.
=27	=27
4G\	2.d\
4F\	.
4G\	.
4A\	4c\
2G\	1d
2D\	.
=28	=28
2F\	4c\
.	4B\
2G\	4A/
.	4G/
1D	1A
=29	=29
0GG;l	0G;l
!!LO:LB:i:g=z
=30||	=30||
*>B	*>B
*clefF4	*clefGv2
*k[]	*k[]
*M2/1	*M2/1
*met(C|)	*met(C|)
!!section: Christe
!!!OMD: Christe
1.C	0r
2BB/	.
=31	=31
1AA	1.c
1GG	.
.	2B\
=32	=32
1C	1A
1BB	1G
=33	=33
1.AA	1.c
2GG/	[2B\
=34	=34
2AA/	4B\]
.	4A/
2C/	1A
1BB	.
.	2G#i/
=35	=35
1AA	0A
1r	.
=36	=36
1AA	0r
1E	.
=37	=37
1AA	1A
1r	[1e
=38	=38
1AA	2e\]
.	2.f\
2E\	.
.	4e\
2G\	[2e\
=39	=39
1F	2e\]
.	2d\
1E	1e
=40	=40
0AA	2r
.	2A/
.	2.c\
.	4d\
=41	=41
2r	2e\
2AA/	2d\
2C/	2.c\
2D\	.
.	8B/L
.	8A/J
=42	=42
2.E\	2.G/
4F\	4A/
1G	1B
=43	=43
2C/	4A/
.	4G/
2E\	1G
1D	.
.	2F#i/
=44	=44
1C	1G
2.C/	1r
4D\	.
=45	=45
2E\	0r
2F\	.
2G\	.
2A\	.
=46	=46
2D\	0r
2A\	.
1G	.
=47	=47
1C	1.E
2AA/	.
2D\	2F/
=48	=48
2C/	2G/
2F\	2A/
2E\	2B\
2A\	2c\
=49	=49
2G\	4d\
.	4c\
2A\	4B\
.	4A/
1E	1B
=50	=50
2F\	1A
2D\	.
2.G\	1r
4F\	.
=51	=51
4E\	0r
4D\	.
4E\	.
4C/	.
1D	.
=52	=52
1GG	0r
1AA	.
=53	=53
1GG	1.G
1D	.
.	2F/
=54	=54
1E	1G
1D	1A
=55	=55
1GG	0G
1r	.
=56	=56
0G	1r
.	1G
=57	=57
1F	1A
1G	1G
=58	=58
1A	0c
1F	.
=59	=59
1.G	1.B
[2F\	[2c\
=60	=60
1F]	2c\]
.	2A/
2G\	2B\
2C/	2c\
=61	=61
1E	1G
1D	1A
=62	=62
0GGl	0Gl
!!LO:LB:i:g=z
=63||	=63||
*>C	*>C
*clefF4	*clefGv2
*k[]	*k[]
*M2/1	*M2/1
*met(C|)	*met(C|)
!!section: Kyrie II
!!!OMD: Kyrie II
0G	0G
=64	=64
0D	1F
.	1F
=65	=65
1E	1G
1C	4G/
.	4A/
.	4B\
.	4c\
=66	=66
2G\	2B\
2C/	1c
1G	.
.	2B\
=67	=67
2C/	2c\
2.G\	2.d\
4F\	4e\
2E\	2c\
=68	=68
1D	2d\
.	4c\
.	4B\
2r	1A
2D\	.
=69	=69
1E	1G
1C	1c
=70	=70
0G	0d
=71	=71
1C	2.c\
.	8B/L
.	8A/J
1E	1G
=72	=72
2.D\	1A
8C/L	.
8BB/J	.
1AA	2r
.	2A/
=73	=73
1GG	1B
1D	1A
=74	=74
1AA	1c
1E	2B\
.	2G/
=75	=75
2F\	2.A/
4E\	.
4D\	4B\
2.C/	2c\
.	4B\
4D\	4A/
=76	=76
2E\	2G/
2AA/	1A
1D	.
.	2F/
=77	=77
2GG/	2G/
1C	2.E/
.	4D/
2BB/	[2G/
=78	=78
1AA	2G/]
.	2F#i/
1GG	1G
=79	=79
1G	2.B\
.	4c\
1D	1d
=80	=80
1F	1c
1G	1B
=81	=81
0D	0A
=82	=82
3%4EV	3%4GV
3%2CZ	3%2EZ
=83	=83
3%2DV	3%2FV
3%2E	3%2G
3%2AAZ	3%2EZ
=84	=84
3%2DV	3%2FV
3%2GG	3%2G
[3%2AAZ	[3%2EZ
=85	=85
3%2AA]V	3E/]V
.	3%2A
3%4EZ	.
.	6G#i/
.	6F#i/
.	3%2G#iZ
=86	=86
3%4AAV	3%2AV
.	3%2c
3%2EZ	3%2BZ
=87	=87
3%2.AAV	3%2.AV
3%2.DZ	3%2.FZ
=88	=88
3%2.EV	3%2.GV
3%2.DZ	3%2A
.	3B\Z
=89	=89
3%2CV	3%2cV
3%2BB	3%2d
3%2CZ	[3%2GZ
=90	=90
3%2EV	3%2G]V
3%4DZ	3%4AZ
=91	=91
1GG	0G
2r	.
[2G\	.
=92	=92
2G\]	0r
2F\	.
2E\	.
2D\	.
=93	=93
2C/	0r
2AA/	.
1BB	.
=94	=94
[0AA	1.e
.	2d\
=95	=95
1AA]	1c
1E	1B
=96	=96
1.F	2.A/
.	4G/
.	2F/
[2C/	[2G/
=97	=97
2C/]	4G/]
.	4F/
2D\	4E/
.	4D/
1AA	1E
=98	=98
1BB	1D
1GG	2r
.	2D/
=99	=99
2r	1G
2GG/	.
2GG/	2G/
2GG/	2G/
=100	=100
2G\	4G/
.	4A/
4F\	4B\
4E\	4c\
1D	2d\
.	2B\
=101	=101
1C	0c
2r	.
2C/	.
=102	=102
2G\	2B\
4F\	4A/
4E\	4G/
2D\	2A/
[2GG/	[2B\
=103	=103
2GG/]	4B\]
.	4A/
2BB/	1G
1AA	.
.	2F#i/
=104	=104
1GG	1.G
2G\	.
2F\	2D/
=105	=105
1E	1G
1D	1A
=106	=106
1GG	2G/
.	1.B
2r	.
2GG/	.
=107	=107
2C/	2c\
2C/	1A
2BB/	.
2BB/	[2G/
=108	=108
2AA/	4G/]
.	4F#i/
2AA/	4F#i/
.	4E/
2GG/	2G/
2F\	2A/
=109	=109
2G\	2B\
2C/	2c\
1D	1A
=110	=110
0GGl	0Gl
==	==
*-	*-
!!!RDF**kern: l=long note in original notation
!!!RDF**kern: i=editorial accidental
!!!RDF**kern: V=start of tuplet marker
!!!RDF**kern: Z=end of tuplet marker
!!!ENC:	Reinier de Valk; Victoria Chang 2012/03/28
!!!END:	2012/03/28/
!!!EED:	Jesse Rodin
!!!EEV:	2012/06/27/
!!attribution-level@Jos: 4 (questionable)
!!!ONB:	Translated from MusicXML and edited on 2012/06/27/ by Craig Sapp
!!muse2ps: T^@{OPR}^u^@{ONM}{. }@{OTL}^C^@{COA}?\n@{SCT}^i2I150v95,150Q8
